src/components/Icon/assets/number.svg

<svg width="24" height="24" viewBox="0 0 24 24" fill="none" xmlns="http://www.w3.org/2000/svg">
<g id="number">
<path id="Combined Shape" fill-rule="evenodd" clip-rule="evenodd" d="M2 7C2 5.89543 2.89543 5 4 5H20C21.1046 5 22 5.89543 22 7V17C22 18.1046 21.1046 19 20 19H4C2.89543 19 2 18.1046 2 17V7ZM16 7H15.5C13.8431 7 12.5 8.34315 12.5 10V10.5C12.5 12.1569 13.8431 13.5 15.5 13.5H16C16.3113 13.5 16.6115 13.4526 16.8938 13.3646C16.5971 14.3123 15.7122 15 14.6667 15H13V17H14.6667L14.8766 16.995C17.1723 16.8855 19 14.9895 19 12.6667V10.5V10C19 8.34315 17.6569 7 16 7ZM16 11.5C16.5523 11.5 17 11.0523 17 10.5V10C17 9.44772 16.5523 9 16 9H15.5C14.9477 9 14.5 9.44772 14.5 10V10.5C14.5 11.0523 14.9477 11.5 15.5 11.5H16ZM8.25 7C10.0449 7 11.5 8.45507 11.5 10.25V13.75C11.5 15.5449 10.0449 17 8.25 17C6.45507 17 5 15.5449 5 13.75V10.25C5 8.45507 6.45507 7 8.25 7ZM8.25 9C7.60279 9 7.07047 9.49187 7.00645 10.1222L7 10.25V13.75C7 14.4404 7.55964 15 8.25 15C8.89721 15 9.42953 14.5081 9.49355 13.8778L9.5 13.75V10.25C9.5 9.55964 8.94036 9 8.25 9Z" fill="#242428"/>
</g>
</svg>

<svg xmlns="http://www.w3.org/2000/svg" width="24" height="24" fill="none" viewBox="0 0 24 24">
    <path fill="#65676A" fill-rule="evenodd" d="M2 7c0-1.105.895-2 2-2h16c1.105 0 2 .895 2 2v10c0 1.105-.895 2-2 2H4c-1.105 0-2-.895-2-2V7zm14 0h-.5c-1.657 0-3 1.343-3 3v.5c0 1.657 1.343 3 3 3h.5c.311 0 .611-.047.894-.135-.297.947-1.182 1.635-2.227 1.635H13v2h1.667l.21-.005c2.295-.11 4.123-2.006 4.123-4.328V10c0-1.657-1.343-3-3-3zm0 4.5c.552 0 1-.448 1-1V10c0-.552-.448-1-1-1h-.5c-.552 0-1 .448-1 1v.5c0 .552.448 1 1 1h.5zM8.25 7c1.795 0 3.25 1.455 3.25 3.25v3.5c0 1.795-1.455 3.25-3.25 3.25S5 15.545 5 13.75v-3.5C5 8.455 6.455 7 8.25 7zm0 2c-.647 0-1.18.492-1.244 1.122L7 10.25v3.5c0 .69.56 1.25 1.25 1.25.647 0 1.18-.492 1.244-1.122l.006-.128v-3.5C9.5 9.56 8.94 9 8.25 9z" clip-rule="evenodd"/>
</svg>
